public/img/icon_04.svg

<?xml version="1.0" ?><svg height="24" viewBox="0 0 24 24" width="24" xmlns="http://www.w3.org/2000/svg"><path d="M18.5918201,20.0060337 L15.8743256,20.0060337 C15.6241439,20.9903926 15.0074832,21.8525384 14.0878016,22.4135273 C12.8058555,23.1954909 11.1941445,23.1954909 9.91219841,22.4135273 C8.87009269,21.777862 8.29383594,21.067621 8.08797645,20.0060337 L2,20.0060337 L2,16.597356 L2.2879647,16.3054582 C2.39205094,16.2006412 3.24384208,15.4366433 3.48595854,15.1733251 C4.46898326,14.1042185 5,12.628966 5,9.99618774 C5,8.86162002 5.17378564,7.82494058 5.48730755,6.90152112 L1.29289322,2.70710678 L2.70710678,1.29289322 L22.7071068,21.2928932 L21.2928932,22.7071068 L18.5918201,20.0060337 Z M16.5926673,18.0068809 L7.125136,8.53934957 C7.04340246,8.99464198 7,9.48079158 7,9.99618774 C7,13.1126682 6.29422173,15.0734373 4.95848591,16.5261413 C4.74843403,16.7545871 4.29607181,17.1742479 4,17.445401 L4,18.0068809 L16.5926673,18.0068809 Z M10.1786171,20.0060337 C10.3199018,20.2687456 10.5607105,20.4671167 10.9540156,20.7070255 C11.596268,21.0987877 12.403732,21.0987877 13.0459844,20.7070255 C13.3433933,20.5256116 13.5757865,20.2855657 13.7367218,20.0060337 L10.1786171,20.0060337 Z M19,9.99618774 L19,14.779947 L17.303195,13.0838608 C17.1024999,12.1972654 17,11.1798521 17,9.99618774 C17,6.22907352 14.6597092,4.01110567 12,4.01110567 C10.9706966,4.01110567 9.99120269,4.33971881 9.17636285,4.96047103 L7.75448353,3.539194 C8.46070283,2.95462856 9.26830273,2.52704144 10.1353075,2.27538271 C10.2402118,2.00482729 10.405725,1.75331598 10.6305147,1.54220031 C11.4002733,0.819266563 12.5997267,0.819266563 13.3694853,1.54220031 C13.5947695,1.75378036 13.7605161,2.00593396 13.8653839,2.27716837 C16.7616088,3.12259832 19,5.93873195 19,9.99618774 Z" fill-rule="evenodd"/></svg>

<?xml version="1.0" encoding="utf-8"?>
<!-- Generator: Adobe Illustrator 22.0.1, SVG Export Plug-In . SVG Version: 6.00 Build 0)  -->
<svg version="1.1" id="레이어_1" xmlns="http://www.w3.org/2000/svg" xmlns:xlink="http://www.w3.org/1999/xlink" x="0px"
	 y="0px" viewBox="0 0 24 24" style="enable-background:new 0 0 24 24;" xml:space="preserve">
<style type="text/css">
	.st0{fill:#EEEEEE;}
</style>
<path class="st0" d="M18.6,20h-2.7c-0.3,1-0.9,1.8-1.8,2.4c-1.3,0.8-2.9,0.8-4.2,0c-1-0.6-1.6-1.3-1.8-2.4H2v-3.4l0.3-0.3
	c0.1-0.1,1-0.9,1.2-1.1C4.5,14.1,5,12.6,5,10c0-1.1,0.2-2.2,0.5-3.1L1.3,2.7l1.4-1.4l20,20l-1.4,1.4L18.6,20z M16.6,18L7.1,8.5
	C7,9,7,9.5,7,10c0,3.1-0.7,5.1-2,6.5c-0.2,0.2-0.7,0.6-1,0.9V18H16.6z M10.2,20c0.1,0.3,0.4,0.5,0.8,0.7c0.6,0.4,1.4,0.4,2.1,0
	c0.3-0.2,0.5-0.4,0.7-0.7H10.2z M19,10v4.8l-1.7-1.7C17.1,12.2,17,11.2,17,10c0-3.8-2.3-6-5-6C11,4,10,4.3,9.2,5L7.8,3.5
	c0.7-0.6,1.5-1,2.4-1.3c0.1-0.3,0.3-0.5,0.5-0.7c0.8-0.7,2-0.7,2.7,0c0.2,0.2,0.4,0.5,0.5,0.7C16.8,3.1,19,5.9,19,10z"/>
</svg>
